X: 621
T: Helili la
L: 1/8
M: 2/4
K: G
d2B B [I:setbarnb 1]| 
A4 | 
B2B A | 
G4 | 
d2B B | 
A2G2 | 
G A G E | 
D4 | 
G2B2 | 
A4 | 
G2B A | 
G4 | 
A2A B | 
A2G2 | 
G2E G | 
A4 | 
GG2E | 
D4 |]

@@@ Tune index: 9495
